X:62
T:Road to Boston
T:On the Road to Boston
S:Bernie Waugh
R:Reel
M:2/4
L:1/8
K:D
|:\
"D"f2 fe/f/|"G"gf ed|"A"cd ef/e/|"F#m"dA FA|
"D"f2 fe/f/|"G"gf ed|"A"cd ef|"D"d2d2:|
"D"a2ag/a/|"B7"ba gf|"Em"g2gf/g/|"A7"ag fe|
"D7"f2 fe/f/|"G"gf ed|"A7"cd ef|"D"d2d2|
"D(Am)"a2ag/a/|"B7(D)"ba gf|"Em(C)"g2gf/g/|"A7(Bmaj)"ag fe|
"D7(Em)"f2 "(C)"fe/f/|"G(Am)"gf ed|"A7(F#maj)"cd "(A)"ef|"D(Bb)"d2d2|]

